docs/static/images/users/capgemini.svg

<svg width="360" height="80" xmlns="http://www.w3.org/2000/svg">
  <path d="M344.071 47.785c7.849 0 13.91-6.396 13.988-13.979-.545-3.311-1.705-9.438-10.301-9.438-9.398 0-12.516 13.137-20.169 21.605-.621 4.817-5.174 9.126-10.869 9.848 1.398 1.461 4.497 2.246 8.198 2.246 6.779 0 14.985-2.04 19.278-6.278-5.727.074-9.411-3.606-9.775-8.707 2.794 3.385 5.952 4.703 9.65 4.703" fill="#12abdb"/>
  <path d="M283.779 26.884c0-4.17-.253-6.958-2.981-6.958-1.244 0-1.853.244-2.941.609.966 14.105-2.219 26.526-6.11 26.526-5.101 0-2.554-30.232-13.364-30.232-9.962 0-11.394 24.133-12.526 24.133-.773 0-.889-6.337-.849-11.166.419-2.32.644-4.396.644-5.975 0-2.248-.913-6.135-6.017-4.191.182 17.252-3.275 27.684-7.164 27.684-5.709 0-5.768-15.647-5.768-19.958 0-4.211.301-9.838-5.954-7.834-.939 15.053-4.88 26.415-7.368 26.415-3.709 0-2.962-26.009-10.983-26.009-7.207 0-9.436 24.632-10.939 24.632-2.689 0 .84-27.731-9.569-27.731-5.463 0-7.631 9.261-9.77 19.622-.417 2.008-.853 2.067-.922-.196a144.123 144.123 0 01-.051-5.807c2.63-10.414-.579-14.261-5.402-11.486 1.554 19.219-7.265 28.615-14.036 28.615-2.448 0-4.37-1.04-5.81-2.684 8.118-4.977 11.724-10.691 11.724-16.27 0-6.05-3.474-9.532-9.242-9.532-8.055 0-12.556 8.29-12.556 15.336 0 3.794.705 7.015 1.874 9.672-2.767 1.32-5.375 2.461-7.802 3.568-.211-7.25-1.032-14.865-1.655-21.888-4.284-1.181-5.537.88-5.867 4.695-.758 8.705-3.984 14.105-6.834 14.105-2.147 0-3.455-2.611-3.613-5.383-.796-13.954 10.533-17.836 16.455-15.813 1.229-3.076-.12-5.293-5.463-5.293-6.484 0-11.329 3.937-14.88 8.99-2.373 3.368-5.11 5.758-8.75 8.648.093-.831.144-1.663.144-2.48 0-9.84-5.333-14.157-10.424-14.157-4.212 0-6.859 2.526-8.395 6.399-.379-3.884-1.152-5.562-3.411-5.562-.968 0-2.309.274-3.754.973.661 2.168.918 6.979.918 10.145 0 11.832-3.389 17.133-6.652 17.133-3.727 0-4.32-14.034-4.632-19.495a5.073 5.073 0 00-1.827-.337c-3.371 0-3.811 4.531-4.642 8.695-.922 4.615-3.582 10.419-7.518 10.419-2.379 0-3.863-2.295-4.049-6.421-.387-8.364 6.573-18.278 17.463-15.194 1.428-3.332-.812-5.869-5.332-5.869-7.96 0-14.541 5.958-17.411 13.008-2.913 6.463-8.015 15.958-18.389 15.958-7.327 0-12.931-6.387-12.931-19.796 0-11.558 7.284-22.537 15.059-22.537 5.438 0 6.699 5.348 6.221 10.371 2.813 2.263 7.436.16 7.436-5.491 0-3.894-3.162-10.496-13.368-10.496C11.162.994 0 13.592 0 30.147c0 16.025 8.134 25.499 19.65 25.499 7.263 0 14.12-4.147 18.853-11.793 1.189 6.694 5.754 9.513 9.175 9.513 5.534 0 9.149-3.581 11.124-8.436 1.232 4.864 3.832 8.455 8.147 8.455 3.045 0 5.417-1.539 7.204-4.013-.707 16.891-1.604 27.66 8.377 25.537-1.541-4.8-2.033-13.543-2.033-21.391 0-21.48 3.543-28.548 7.983-28.548 3.217 0 4.259 4.102 4.259 8.476 0 2.343-.223 5.036-.821 7.468-5.455 3.442-9.813 6.157-9.813 9.61 0 2.731 2.025 2.986 3.779 2.986 4.189 0 9.232-4.112 12.019-11.87 2.438-1.474 4.88-3.164 7.219-5.465a24.123 24.123 0 00-.126 2.387c0 7.703 3.374 12.354 8.755 12.354 4.217 0 7.381-2.99 9.613-7.468.141 2.581.227 4.958.267 7.148-8.553 3.951-18.021 7.972-18.021 19.13 0 5.773 4.169 10.12 9.6 10.12 11.916 0 14.632-12.577 14.745-27.187 3.878-1.684 6.769-2.981 10.104-4.628 2.85 3.567 6.724 5.356 10.28 5.356 6.726 0 11.774-3.564 15.831-10.789.72 5.499 2.146 10.789 5.068 10.789 5.332 0 6.41-27.873 10.377-27.873 3.035 0 .541 30.16 8.557 30.16 6.864 0 8.152-26.542 11.493-26.542 2.368 0 2.548 24.26 10.021 24.26 3.676 0 7.663-4.417 9.663-13.672.937 6.156 4.049 13.672 10.122 13.672 3.544 0 6.59-3.586 8.941-8.352.649 4.905 2.038 8.352 4.723 8.352 6.983 0 6.749-27.815 12.278-27.815 4.311 0 2.976 27.815 13.242 27.815 4.884 0 7.2-4.165 8.576-9.386 1.889 7.682 4.941 9.386 7.451 9.386 1.589 0 2.791-.56 4.366-2.439-7.937-3.444-7.269-15.974-7.269-24.069m-168.07 47.76c-2.465 0-3.768-2.339-3.768-4.989 0-7.131 5.238-10.918 11.693-14.169-.295 15.594-3.918 19.158-7.925 19.158m32.063-50.547c2.4 0 3.775 2.204 3.537 5.374-.28 3.725-2.989 7.984-7.699 11.333-2.463-7-.631-16.707 4.165-16.707m76.048-10.543c2.288-.078 3.886-2.043 3.895-4.379.008-2.337-1.571-4.171-3.859-4.089-2.289.078-4.154 2.038-4.164 4.377-.011 2.337 1.837 4.169 4.128 4.091m56.888 1.185c2.082-.074 3.781-1.943 3.79-4.168.01-2.23-1.672-3.973-3.758-3.899-2.086.075-3.781 1.945-3.792 4.17-.008 2.227 1.676 3.973 3.76 3.897m77.335 18.509c-.17-8.814-4.366-16.252-10.831-22.189-4.91-4.484-10.744-7.888-16.859-10.453a59.9 59.9 0 00-1.485-.604h-.002c-7.53 9.021-33.606 15.754-33.606 34.667 0 7.394 4.669 14.308 11.526 17.082 3.975 1.504 7.952 1.586 11.931.249 3.537-1.162 6.446-3.356 8.865-6.03 7.659-8.467 10.775-21.6 20.171-21.6 8.598 0 9.755 6.12 10.305 9.434 0-.008-.004-.24-.015-.556" fill="#0070ad"/>
</svg>

<?xml version="1.0" encoding="UTF-8"?>
<svg width="360px" height="80px" viewBox="0 0 360 80" xmlns="http://www.w3.org/2000/svg" xmlns:xlink="http://www.w3.org/1999/xlink" version="1.1">
 <!-- Generated by Pixelmator Pro 1.4.1 -->
 <path id="path" d="M344.071 47.785 C351.92 47.785 357.981 41.389 358.059 33.806 357.514 30.495 356.354 24.368 347.758 24.368 338.36 24.368 335.242 37.505 327.589 45.973 326.968 50.79 322.415 55.099 316.72 55.821 318.118 57.282 321.217 58.067 324.918 58.067 331.697 58.067 339.903 56.027 344.196 51.789 338.469 51.863 334.785 48.183 334.421 43.082 337.215 46.467 340.373 47.785 344.071 47.785" fill="#12abdb" fill-opacity="1" stroke="none"/>
 <path id="path-1" d="M283.779 26.884 C283.779 22.714 283.526 19.926 280.798 19.926 279.554 19.926 278.945 20.17 277.857 20.535 278.823 34.64 275.638 47.061 271.747 47.061 266.646 47.061 269.193 16.829 258.383 16.829 248.421 16.829 246.989 40.962 245.857 40.962 245.084 40.962 244.968 34.625 245.008 29.796 245.427 27.476 245.652 25.4 245.652 23.821 245.652 21.573 244.739 17.686 239.635 19.63 239.817 36.882 236.36 47.314 232.471 47.314 226.762 47.314 226.703 31.667 226.703 27.356 226.703 23.145 227.004 17.518 220.749 19.522 219.81 34.575 215.869 45.937 213.381 45.937 209.672 45.937 210.419 19.928 202.398 19.928 195.191 19.928 192.962 44.56 191.459 44.56 188.77 44.56 192.299 16.829 181.89 16.829 176.427 16.829 174.259 26.09 172.12 36.451 171.703 38.459 171.267 38.518 171.198 36.255 171.142 34.32 171.125 32.384 171.147 30.448 173.777 20.034 170.568 16.187 165.745 18.962 167.299 38.181 158.48 47.577 151.709 47.577 149.261 47.577 147.339 46.537 145.899 44.893 154.017 39.916 157.623 34.202 157.623 28.623 157.623 22.573 154.149 19.091 148.381 19.091 140.326 19.091 135.825 27.381 135.825 34.427 135.825 38.221 136.53 41.442 137.699 44.099 134.932 45.419 132.324 46.56 129.897 47.667 129.686 40.417 128.865 32.802 128.242 25.779 123.958 24.598 122.705 26.659 122.375 30.474 121.617 39.179 118.391 44.579 115.541 44.579 113.394 44.579 112.086 41.968 111.928 39.196 111.132 25.242 122.461 21.36 128.383 23.383 129.612 20.307 128.263 18.09 122.92 18.09 116.436 18.09 111.591 22.027 108.04 27.08 105.667 30.448 102.93 32.838 99.29 35.728 99.383 34.897 99.434 34.065 99.434 33.248 99.434 23.408 94.101 19.091 89.01 19.091 84.798 19.091 82.151 21.617 80.615 25.49 80.236 21.606 79.463 19.928 77.204 19.928 76.236 19.928 74.895 20.202 73.45 20.901 74.111 23.069 74.368 27.88 74.368 31.046 74.368 42.878 70.979 48.179 67.716 48.179 63.989 48.179 63.396 34.145 63.084 28.684 62.501 28.46 61.881 28.346 61.257 28.347 57.886 28.347 57.446 32.878 56.615 37.042 55.693 41.657 53.033 47.461 49.097 47.461 46.718 47.461 45.234 45.166 45.048 41.04 44.661 32.676 51.621 22.762 62.511 25.846 63.939 22.514 61.699 19.977 57.179 19.977 49.219 19.977 42.638 25.935 39.768 32.985 36.855 39.448 31.753 48.943 21.379 48.943 14.052 48.943 8.448 42.556 8.448 29.147 8.448 17.589 15.732 6.61 23.507 6.61 28.945 6.61 30.206 11.958 29.728 16.981 32.541 19.244 37.164 17.141 37.164 11.49 37.164 7.596 34.002 0.994 23.796 0.994 11.162 0.994 0 13.592 0 30.147 0 46.172 8.134 55.646 19.65 55.646 26.913 55.646 33.77 51.499 38.503 43.853 39.692 50.547 44.257 53.366 47.678 53.366 53.212 53.366 56.827 49.785 58.802 44.93 60.034 49.794 62.634 53.385 66.949 53.385 69.994 53.385 72.366 51.846 74.153 49.372 73.446 66.263 72.549 77.032 82.53 74.909 80.989 70.109 80.497 61.366 80.497 53.518 80.497 32.038 84.04 24.97 88.48 24.97 91.697 24.97 92.739 29.072 92.739 33.446 92.739 35.789 92.516 38.482 91.918 40.914 86.463 44.356 82.105 47.071 82.105 50.524 82.105 53.255 84.13 53.51 85.884 53.51 90.073 53.51 95.116 49.398 97.903 41.64 100.341 40.166 102.783 38.476 105.122 36.175 105.044 36.962 104.996 37.754 104.996 38.562 104.996 46.265 108.37 50.916 113.751 50.916 117.968 50.916 121.132 47.926 123.364 43.448 123.505 46.029 123.591 48.406 123.631 50.596 115.078 54.547 105.61 58.568 105.61 69.726 105.61 75.499 109.779 79.846 115.21 79.846 127.126 79.846 129.842 67.269 129.955 52.659 133.833 50.975 136.724 49.678 140.059 48.031 142.909 51.598 146.783 53.387 150.339 53.387 157.065 53.387 162.113 49.823 166.17 42.598 166.89 48.097 168.316 53.387 171.238 53.387 176.57 53.387 177.648 25.514 181.615 25.514 184.65 25.514 182.156 55.674 190.172 55.674 197.036 55.674 198.324 29.132 201.665 29.132 204.033 29.132 204.213 53.392 211.686 53.392 215.362 53.392 219.349 48.975 221.349 39.72 222.286 45.876 225.398 53.392 231.471 53.392 235.015 53.392 238.061 49.806 240.412 45.04 241.061 49.945 242.45 53.392 245.135 53.392 252.118 53.392 251.884 25.577 257.413 25.577 261.724 25.577 260.389 53.392 270.655 53.392 275.539 53.392 277.855 49.227 279.231 44.006 281.12 51.688 284.172 53.392 286.682 53.392 288.271 53.392 289.473 52.832 291.048 50.953 283.111 47.509 283.779 34.979 283.779 26.884 M115.709 74.644 C113.244 74.644 111.941 72.305 111.941 69.655 111.941 62.524 117.179 58.737 123.634 55.486 123.339 71.08 119.716 74.644 115.709 74.644 M147.772 24.097 C150.172 24.097 151.547 26.301 151.309 29.471 151.029 33.196 148.32 37.455 143.61 40.804 141.147 33.804 142.979 24.097 147.775 24.097 M223.823 13.554 C226.111 13.476 227.709 11.511 227.718 9.175 227.726 6.838 226.147 5.004 223.859 5.086 221.57 5.164 219.705 7.124 219.695 9.463 219.684 11.8 221.532 13.632 223.823 13.554 M280.711 14.739 C282.793 14.665 284.492 12.796 284.501 10.571 284.511 8.341 282.829 6.598 280.743 6.672 278.657 6.747 276.962 8.617 276.951 10.842 276.943 13.069 278.627 14.815 280.711 14.739 M358.046 33.248 C357.876 24.434 353.68 16.996 347.215 11.059 342.305 6.575 336.471 3.171 330.356 0.606 329.864 0.398 329.369 0.197 328.871 0.002 L328.869 0.002 C321.339 9.023 295.263 15.756 295.263 34.669 295.263 42.063 299.932 48.977 306.789 51.751 310.764 53.255 314.741 53.337 318.72 52 322.257 50.838 325.166 48.644 327.585 45.97 335.244 37.503 338.36 24.37 347.756 24.37 356.354 24.37 357.511 30.49 358.061 33.804 358.061 33.796 358.057 33.564 358.046 33.248" fill="#0070ad" fill-opacity="1" stroke="none"/>
</svg>
